src/raw/chat-request/icon_32.svg

<svg width="32" height="32" viewBox="0 0 32 32" fill="none" xmlns="http://www.w3.org/2000/svg">
<path d="M11.7369 23.421L8 27V21H3.89745C3.39421 21 2.91159 20.8001 2.55575 20.4443C2.19991 20.0884 2 19.6058 2 19.1026V3.89727C2 3.39403 2.19991 2.91141 2.55575 2.55557C2.91159 2.19973 3.39421 1.99982 3.89745 1.99982H25.1026C25.6058 1.99982 26.0884 2.19973 26.4443 2.55557C26.8001 2.91141 27 3.39403 27 3.89727V9.54514" stroke="#71717A" stroke-width="1.5" stroke-linecap="round" stroke-linejoin="round"/>
<path d="M6.6665 6.66669H21.3332" stroke="#71717A" stroke-width="1.5" stroke-linecap="round" stroke-linejoin="round"/>
<path d="M6.6665 12H13.3332" stroke="#71717A" stroke-width="1.5" stroke-linecap="round" stroke-linejoin="round"/>
<path d="M22.6668 25.6667C25.6123 25.6667 28.0002 23.2789 28.0002 20.3333C28.0002 17.3878 25.6123 15 22.6668 15C19.7213 15 17.3335 17.3878 17.3335 20.3333C17.3335 23.2789 19.7213 25.6667 22.6668 25.6667Z" stroke="#71717A" stroke-width="1.5" stroke-linecap="round" stroke-linejoin="round"/>
<path d="M29.3333 29.6667C28.6889 28.8611 27.7282 28.1875 26.554 27.7178C25.3797 27.2481 24.0361 27 22.6667 27C21.2973 27 19.9536 27.2481 18.7794 27.7178C17.6051 28.1875 16.6444 28.8611 16 29.6667" stroke="#71717A" stroke-width="1.5" stroke-linecap="round" stroke-linejoin="round"/>
</svg>

<svg xmlns="http://www.w3.org/2000/svg" width="32" height="32" fill="none" viewBox="0 0 32 32">
  <path stroke="#3F3F46" stroke-linecap="round" stroke-linejoin="round" stroke-width="2"
    d="M11.737 23.421 8 27.001v-6H3.898A1.897 1.897 0 0 1 2 19.102V3.897A1.897 1.897 0 0 1 3.898 2h21.205A1.897 1.897 0 0 1 27 3.897v5.648M6.667 6.667h14.667M6.667 12h6.667" />
  <path stroke="#3F3F46" stroke-linecap="round" stroke-linejoin="round" stroke-width="2"
    d="M22.667 25.667a5.333 5.333 0 1 0 0-10.667 5.333 5.333 0 0 0 0 10.667ZM29.334 29.667c-.645-.806-1.605-1.48-2.78-1.95-1.174-.469-2.517-.717-3.887-.717s-2.713.248-3.887.718-2.135 1.143-2.78 1.949" />
</svg>
